X:128
M:6/8
L:1/8
K:Bb
|: f | fgf fed | dcB BAG | gag gfe | edc cBA | aba agf | fed dcB | (B/c/d)B F2e | dec B2 :|

